icons/svg/icons8/yoga.svg

<?xml version="1.0" encoding="utf-8"?>
<!-- Generator: Adobe Illustrator 15.0.0, SVG Export Plug-In . SVG Version: 6.00 Build 0)  -->
<!DOCTYPE svg PUBLIC "-//W3C//DTD SVG 1.1//EN" "http://www.w3.org/Graphics/SVG/1.1/DTD/svg11.dtd">
<svg version="1.1" id="Layer_1" xmlns="http://www.w3.org/2000/svg" xmlns:xlink="http://www.w3.org/1999/xlink" x="0px" y="0px"
	 width="26px" height="26px" viewBox="0 0 26 26" enable-background="new 0 0 26 26" xml:space="preserve">
<rect fill="none" width="26" height="26"/>
<circle fill="#333333" cx="13" cy="5" r="1.813"/>
<path fill="#333333" d="M13.865,0.244c-0.339,0.372,2.762,3.027,2.762,4.938c0,0.956-1.405,2.562-1.786,2.828
	c-0.233,0.163-0.991,0.134-1.907,0.146c-0.578,0.009-1.713-0.01-1.895-0.192c-0.477-0.477-1.711-1.878-1.711-2.583
	c0-1.487,2.793-4.974,2.359-5.244c-0.394-0.247-4.291,3.99-4.291,5.311c0,2.026,2.721,5.011,2.721,5.011s-0.022,4.092-0.022,4.519
	c0,3.673,1.281,10.904,2.392,10.904c0.684,0,0.086-3.844,0.086-5.665c0-2.164,0.427-4.328,0.427-4.328s3.407,1.187,3.044,1.561
	c-0.852,0.877-3.168,1.728-2.868,2.178c0.378,0.566,3.771-0.319,5.788-1.912c0.845-0.667-3.418-3.865-3.418-3.865
	c0-1.783,0.025-1.825-0.063-3.391c0,0,2.896-3.159,2.896-4.958C18.379,3.006,14.363-0.304,13.865,0.244z"/>
</svg>

<svg width="26" height="26" viewBox="0 0 26 26" fill="none" xmlns="http://www.w3.org/2000/svg">
<path d="M13 6.813C14.0013 6.813 14.813 6.00129 14.813 5C14.813 3.9987 14.0013 3.187 13 3.187C11.9987 3.187 11.187 3.9987 11.187 5C11.187 6.00129 11.9987 6.813 13 6.813Z" fill="#333333"/>
<path d="M13.865 0.243997C13.526 0.615997 16.627 3.271 16.627 5.182C16.627 6.138 15.222 7.744 14.841 8.01C14.608 8.173 13.85 8.144 12.934 8.156C12.356 8.165 11.221 8.146 11.039 7.964C10.562 7.487 9.328 6.086 9.328 5.381C9.328 3.894 12.121 0.406997 11.687 0.136997C11.293 -0.110003 7.396 4.127 7.396 5.448C7.396 7.474 10.117 10.459 10.117 10.459C10.117 10.459 10.095 14.551 10.095 14.978C10.095 18.651 11.376 25.882 12.487 25.882C13.171 25.882 12.573 22.038 12.573 20.217C12.573 18.053 13 15.889 13 15.889C13 15.889 16.407 17.076 16.044 17.45C15.192 18.327 12.876 19.178 13.176 19.628C13.554 20.194 16.947 19.309 18.964 17.716C19.809 17.049 15.546 13.851 15.546 13.851C15.546 12.068 15.571 12.026 15.483 10.46C15.483 10.46 18.379 7.301 18.379 5.502C18.379 3.006 14.363 -0.304003 13.865 0.243997Z" fill="#333333"/>
</svg>
